icons/atom.svg

<?xml version="1.0" encoding="UTF-8"?><svg xmlns="http://www.w3.org/2000/svg" viewBox="0 0 50 50"><g id="uuid-3b05154c-c6c0-44ed-a61a-8ca920503f27"><g><path d="M47.25,13.69c-1.66-3.27-6.85-4.18-13.53-2.9C31.84,4.26,28.66,.04,25,.04s-6.84,4.23-8.73,10.77c-1.18-.22-2.33-.4-3.43-.48-5.2-.42-8.78,.77-10.09,3.36-1.5,2.95,.25,7.11,4.28,11.31-4.03,4.2-5.78,8.35-4.28,11.31,1.14,2.25,3.99,3.44,8.13,3.44,.62,0,1.28-.03,1.96-.08,1.1-.09,2.25-.26,3.43-.48,1.88,6.55,5.06,10.78,8.73,10.78s6.84-4.23,8.73-10.78c1.18,.22,2.33,.4,3.43,.48,.68,.05,1.34,.08,1.96,.08,4.13,0,6.99-1.19,8.13-3.44,1.5-2.95-.25-7.11-4.28-11.31,4.03-4.2,5.78-8.35,4.28-11.31Zm-.89,.45c1.27,2.5-.45,6.26-4.13,10.11-1.92-1.88-4.29-3.75-7.01-5.52-.26-2.48-.68-4.81-1.22-6.91,6.13-1.15,10.95-.44,12.36,2.33Zm-17.03,19.36c-1.44,.73-2.89,1.4-4.32,1.99-1.44-.59-2.88-1.25-4.32-1.99-1.74-.88-3.39-1.83-4.93-2.83-.18-1.83-.29-3.73-.29-5.68s.1-3.85,.29-5.68c1.55-.99,3.2-1.94,4.93-2.83,1.45-.74,2.9-1.4,4.33-1.98,1.43,.59,2.88,1.25,4.32,1.98,1.74,.88,3.39,1.83,4.93,2.83,.18,1.83,.29,3.73,.29,5.68s-.1,3.85-.29,5.68c-1.55,.99-3.2,1.94-4.93,2.83Zm4.79-1.54c-.27,2.15-.66,4.18-1.15,6.04-2.13-.46-4.36-1.14-6.63-2,1.15-.5,2.3-1.02,3.45-1.61,1.52-.77,2.97-1.59,4.34-2.43Zm-10.44,4.04c-2.27,.86-4.5,1.54-6.63,2-.49-1.86-.88-3.89-1.15-6.04,1.37,.84,2.82,1.66,4.34,2.43,1.15,.58,2.3,1.11,3.45,1.61Zm-9.01-6.04c-2.36-1.6-4.43-3.28-6.15-4.97,1.72-1.68,3.79-3.37,6.15-4.97-.13,1.6-.2,3.26-.2,4.97s.07,3.37,.2,4.97Zm1.23-11.93c.27-2.15,.66-4.18,1.15-6.04,2.13,.46,4.36,1.14,6.63,2-1.14,.49-2.29,1.02-3.45,1.61-1.52,.77-2.97,1.59-4.34,2.43Zm10.46-4.03c2.29-.86,4.52-1.53,6.62-1.98,.49,1.85,.88,3.87,1.15,6.01-1.37-.84-2.82-1.66-4.34-2.43-1.14-.58-2.29-1.11-3.43-1.6Zm9,6.03c2.36,1.6,4.43,3.28,6.15,4.97-1.72,1.68-3.79,3.37-6.15,4.97,.13-1.6,.2-3.26,.2-4.97s-.07-3.37-.2-4.97ZM25,1.04c3.11,0,5.93,3.98,7.69,9.97-2.43,.53-5.02,1.33-7.7,2.42-2.63-1.06-5.22-1.86-7.68-2.4,1.75-6,4.58-9.99,7.69-9.99ZM3.64,14.14c.95-1.87,3.56-2.89,7.27-2.89,.59,0,1.2,.03,1.85,.08,1.04,.08,2.13,.25,3.25,.46-.55,2.12-.97,4.45-1.23,6.94-2.72,1.77-5.09,3.64-7.01,5.52-3.68-3.85-5.4-7.6-4.13-10.11Zm9.12,24.52c-4.69,.38-8.02-.65-9.12-2.81-1.27-2.5,.45-6.25,4.13-10.1,1.92,1.88,4.29,3.75,7.01,5.52,.26,2.49,.68,4.83,1.23,6.94-1.12,.21-2.21,.37-3.25,.46Zm12.24,10.29c-3.12,0-5.94-3.98-7.69-9.99,2.47-.54,5.06-1.35,7.69-2.41,2.63,1.06,5.23,1.87,7.69,2.41-1.75,6-4.58,9.99-7.69,9.99Zm21.36-13.1c-1.1,2.17-4.43,3.19-9.12,2.81-1.04-.08-2.13-.25-3.25-.46,.55-2.12,.97-4.45,1.23-6.94,2.72-1.77,5.09-3.64,7.01-5.52,3.68,3.85,5.4,7.6,4.13,10.1Z"/><path d="M25,21.08c-2.16,0-3.92,1.76-3.92,3.92s1.76,3.92,3.92,3.92,3.92-1.76,3.92-3.92-1.76-3.92-3.92-3.92Zm0,6.84c-1.61,0-2.92-1.31-2.92-2.92s1.31-2.92,2.92-2.92,2.92,1.31,2.92,2.92-1.31,2.92-2.92,2.92Z"/></g></g><g id="uuid-ef111db9-8418-4a52-b468-437b23f2e21a"><text transform="translate(.04 55.09)" font-family="Roboto-Regular, Roboto" font-size="6"><tspan x="0" y="0">a</tspan><tspan x="3.26" y="0" letter-spacing="0em">t</tspan><tspan x="5.17" y="0">om</tspan></text></g></svg>

<svg xmlns="http://www.w3.org/2000/svg" viewBox="0 0 50 50"><g id="a41bb21e-6c8a-4997-b8bb-85f1f58e8152" data-name="ICONS"><path d="M47.25,13.69c-1.66-3.26-6.86-4.18-13.53-2.9C31.84,4.26,28.66,0,25,0s-6.84,4.23-8.73,10.78a31.45,31.45,0,0,0-3.43-.49c-5.2-.42-8.77.78-10.09,3.36C1.25,16.65,3,20.8,7,25c-4,4.2-5.78,8.35-4.28,11.31,1.14,2.24,4,3.44,8.13,3.44.63,0,1.28,0,2-.08a31.45,31.45,0,0,0,3.43-.49C18.16,45.73,21.33,50,25,50s6.84-4.23,8.73-10.78a31.45,31.45,0,0,0,3.43.49c.68,0,1.33.08,2,.08,4.13,0,7-1.2,8.13-3.44C48.75,33.35,47,29.2,43,25,47,20.8,48.75,16.65,47.25,13.69Zm-.89.45c1.27,2.51-.45,6.26-4.13,10.11a45.65,45.65,0,0,0-7-5.52A48,48,0,0,0,34,11.82C40.13,10.67,45,11.37,46.36,14.14Zm-17,19.37q-2.16,1.1-4.32,2c-1.44-.59-2.89-1.25-4.33-2-1.73-.89-3.38-1.84-4.93-2.83-.18-1.83-.28-3.73-.28-5.68s.1-3.85.28-5.68c1.55-1,3.2-1.94,4.93-2.83,1.45-.73,2.9-1.4,4.34-2,1.43.59,2.88,1.25,4.31,2,1.74.89,3.39,1.84,4.94,2.83.18,1.83.28,3.73.28,5.68s-.1,3.85-.28,5.68C32.71,31.67,31.06,32.62,29.32,33.51ZM34.11,32A46.62,46.62,0,0,1,33,38a45.52,45.52,0,0,1-6.63-2c1.15-.49,2.3-1,3.45-1.6C31.3,33.63,32.75,32.81,34.11,32ZM23.67,36A45.52,45.52,0,0,1,17,38a46.62,46.62,0,0,1-1.15-6c1.36.84,2.81,1.66,4.33,2.43C21.37,35,22.52,35.51,23.67,36Zm-9-6a44.88,44.88,0,0,1-6.15-5,44.88,44.88,0,0,1,6.15-5c-.13,1.6-.2,3.26-.2,5S14.53,28.36,14.66,30ZM15.89,18A46.62,46.62,0,0,1,17,12a46.7,46.7,0,0,1,6.63,2c-1.14.5-2.29,1-3.45,1.61C18.7,16.37,17.25,17.19,15.89,18Zm10.45-4A47.16,47.16,0,0,1,33,12a47.91,47.91,0,0,1,1.14,6c-1.36-.84-2.81-1.66-4.33-2.43C28.63,15,27.49,14.5,26.34,14Zm9,6a44.88,44.88,0,0,1,6.15,5,44.88,44.88,0,0,1-6.15,5c.13-1.61.2-3.26.2-5S35.47,21.63,35.34,20ZM25,1c3.11,0,5.93,4,7.69,10A49.35,49.35,0,0,0,25,13.43,49.53,49.53,0,0,0,17.31,11C19.06,5,21.88,1,25,1ZM3.64,14.14c.95-1.87,3.56-2.89,7.28-2.89.58,0,1.2,0,1.84.08,1,.09,2.13.25,3.25.46a47.07,47.07,0,0,0-1.23,6.94,45.65,45.65,0,0,0-7,5.52C4.09,20.4,2.37,16.65,3.64,14.14Zm9.12,24.53c-4.69.38-8-.65-9.12-2.82-1.27-2.5.45-6.25,4.13-10.1a45.65,45.65,0,0,0,7,5.52A47.07,47.07,0,0,0,16,38.21C14.89,38.42,13.8,38.58,12.76,38.67ZM25,49c-3.12,0-5.94-4-7.69-10A48.65,48.65,0,0,0,25,36.56,48.65,48.65,0,0,0,32.69,39C30.94,45,28.12,49,25,49ZM46.36,35.85c-1.1,2.17-4.44,3.2-9.12,2.82-1-.09-2.13-.25-3.25-.46a47.07,47.07,0,0,0,1.23-6.94,45.65,45.65,0,0,0,7-5.52C45.91,29.6,47.63,33.35,46.36,35.85Z"/><path d="M25,21.08A3.92,3.92,0,1,0,28.92,25,3.93,3.93,0,0,0,25,21.08Zm0,6.84A2.92,2.92,0,1,1,27.92,25,2.92,2.92,0,0,1,25,27.92Z"/></g><g id="a826d12d-1e97-4f58-8dc6-cdc73d3d714f" data-name="LABELS"><text transform="translate(0.04 55.09)" font-size="6" font-family="Roboto-Regular, Roboto">a<tspan x="3.26" y="0" letter-spacing="-0.01em">t</tspan><tspan x="5.17" y="0">om</tspan></text></g></svg>
